src/assets/images/ch-1_frame_5b-4/frame_outline.svg

<svg width="1406" height="866" preserveAspectRatio="none"  viewBox="0 0 1406 866" fill="none" xmlns="http://www.w3.org/2000/svg">
<path fill-rule="evenodd" clip-rule="evenodd" d="M254.951 0.375974C254.307 1.01297 235.925 1.90111 219.499 2.08911C211.799 2.17811 202.574 2.66011 198.999 3.16211C195.424 3.66311 178.324 4.2529 160.999 4.4729C143.674 4.6919 117.799 5.12506 103.499 5.43506C81.8435 5.90506 12.7014 7.0281 6.76243 7.0061C0.844426 6.9851 -1.36942 94.095 2.62058 170C3.34958 183.874 3.2904 227.899 2.4824 271.5C1.6774 315.012 1.6764 315.343 2.3364 342C2.6564 354.925 3.13537 392.95 3.40037 426.5C3.66537 460.05 4.13744 493.8 4.44944 501.5C6.16044 543.727 6.62047 597.479 5.35447 607.266C5.01547 609.887 5.23761 621.362 5.84861 632.766C7.61261 665.684 8.2794 680.632 8.5554 693.5C8.6974 700.1 9.07954 710.675 9.40354 717C11.0625 749.361 11.4766 762.869 11.2446 777C11.1046 785.525 11.4665 797.9 12.0495 804.5C12.6315 811.1 13.3234 818.975 13.5854 822C14.4444 831.908 15.9375 838.233 17.7405 839.601C18.7075 840.336 19.0834 840.951 18.5754 840.968C18.0664 840.986 18.7075 842.125 19.9995 843.5C22.5075 846.17 28.4934 847.017 29.2304 844.807C29.5374 843.886 31.2254 843.899 36.6274 844.864C40.4774 845.552 47.1985 845.904 51.5634 845.645C58.6525 845.226 68.5925 845.655 94.4995 847.498C98.8995 847.811 103.849 848.466 105.499 848.953C109.33 850.084 129.098 852.72 139.499 853.487C143.899 853.811 149.974 854.484 152.999 854.982C156.024 855.481 162.099 856.174 166.499 856.522C170.899 856.87 176.524 857.353 178.999 857.595C181.474 857.836 188.224 858.263 193.999 858.542C199.774 858.821 211.699 859.686 220.499 860.464C273.856 865.18 334.815 866.382 433.499 864.664C459.899 864.205 502.425 863.672 528 863.481C553.575 863.29 577.875 862.716 582 862.206C586.125 861.696 600.915 861.209 614.868 861.125C628.821 861.04 640.559 860.772 640.952 860.529C641.344 860.287 647.929 860.024 655.583 859.946C663.237 859.867 673.147 859.435 677.604 858.984C694.961 857.23 901.881 858.453 904.78 860.327C905.484 860.783 917.859 861.59 932.28 862.122C955.249 862.969 970.618 863.309 1016.13 863.976C1021.97 864.062 1029.4 863.676 1032.63 863.119C1036.28 862.489 1050.24 862.331 1069.5 862.702C1086.55 863.03 1106.12 863.259 1113 863.212C1135.07 863.059 1194.07 863.076 1208 863.239C1215.42 863.326 1239.72 863.326 1262 863.239C1284.27 863.152 1308.8 863.147 1316.5 863.228C1324.2 863.309 1337 863.114 1344.94 862.796C1354.95 862.394 1359.94 862.566 1361.23 863.358C1362.77 864.305 1363.4 864.095 1364.89 862.133C1366.15 860.465 1367.27 859.952 1368.68 860.398C1378.45 863.5 1383.87 852.087 1386.44 823C1386.76 819.425 1387.23 814.475 1387.49 812C1387.75 809.525 1388.21 801.277 1388.51 793.67C1389.13 778.132 1390.11 767.869 1392.9 747.517C1393.96 739.827 1394.94 726.327 1395.09 717.517C1395.42 697.063 1395.5 695.322 1396.34 690.5C1397.92 681.426 1398.26 675.699 1398.17 660C1398.1 648.248 1398.54 641.342 1399.69 636C1400.92 630.299 1401.28 623.464 1401.19 607.5C1401.12 595.856 1401.64 581.528 1402.36 575.339C1403.07 569.201 1403.75 556.601 1403.86 547.339C1403.98 538.078 1404.43 524.65 1404.87 517.5C1405.32 510.022 1405.26 500.464 1404.71 495C1403.6 483.955 1403.6 483.936 1403.85 461C1403.96 451.375 1403.59 439.675 1403.03 435C1402.47 430.325 1402.01 418.85 1402 409.5C1401.99 400.15 1401.31 387.116 1400.49 380.536C1399.63 373.632 1399.21 364.75 1399.49 359.536C1399.76 354.566 1399.91 346 1399.81 340.5C1399.5 323.168 1399.6 307.965 1400.13 293.5C1400.41 285.8 1400.38 275 1400.07 269.5C1399.75 264 1399.84 255.9 1400.26 251.5C1400.68 247.1 1400.94 237.875 1400.85 231C1400.76 224.125 1400.82 212.425 1400.99 205C1401.84 168.131 1399.95 82.697 1397.97 68.917C1395.93 54.634 1389.93 45.881 1380 42.699C1375.1 41.129 1344.35 36.0531 1336 35.4351C1331.32 35.0901 1327.26 34.6571 1326.96 34.4741C1326.28 34.0541 1314.63 33.168 1301 32.498C1272.54 31.101 1253.35 29.8049 1242 28.5149C1235.12 27.7329 1221.85 26.836 1212.5 26.521C1203.15 26.207 1193.7 25.7511 1191.5 25.5081C1189.3 25.2661 1183 24.8149 1177.5 24.5049C1172 24.1959 1163.9 23.5199 1159.5 23.0029C1155.1 22.4859 1147.22 21.856 1142 21.604C1133.11 21.175 1122.29 20.3299 1095.37 17.9629C1089.24 17.4249 1077.32 16.7451 1068.87 16.4541C1060.41 16.1621 1046.75 15.4569 1038.5 14.8879C1030.25 14.3189 1011.35 13.483 996.5 13.031C981.65 12.579 968.825 11.947 968 11.626C966.562 11.066 961.834 10.8529 921.5 9.5249C911.6 9.1989 898.775 8.681 893 8.375C873.16 7.322 857.483 6.65007 847 6.40307C829.871 6.00107 791.698 5.99211 789 6.39111C784.36 7.07611 750.669 8.21994 725 8.56494C710.975 8.75294 697.025 9.14789 694 9.44189C683.026 10.5089 476.676 9.53596 474.851 8.40796C473.963 7.85896 433.035 6.16893 403.999 5.48193C388.967 5.12693 376.221 4.44602 357.499 2.99902C329.18 0.810021 318.135 0.366063 301.999 0.768063C277.99 1.36606 261.593 1.28894 258.294 0.564938C256.704 0.214938 255.199 0.130974 254.951 0.375974ZM341.499 23.9619C346.449 24.4319 353.847 24.884 357.939 24.967C362.031 25.049 365.748 25.345 366.2 25.624C366.652 25.903 376.804 26.3179 388.76 26.5449C411.051 26.9679 420.409 27.5181 421.993 28.4961C422.488 28.8021 430.905 29.0489 440.697 29.0439C450.489 29.0399 464.574 29.484 471.999 30.032C484.255 30.936 525.947 31.5669 548.5 31.1899C553.45 31.1069 574.6 31.232 595.5 31.467C641.363 31.982 684.855 31.94 691 31.373C693.475 31.145 706.075 30.77 719 30.54C745.522 30.067 779.244 29.0241 786 28.4661C796.123 27.6311 865.456 28.073 878 29.053C885.425 29.633 899.825 30.2881 910 30.5081C926.833 30.8731 957.061 32.5929 964.5 33.6089C966.15 33.8349 982.35 34.362 1000.5 34.782C1018.65 35.202 1033.95 35.83 1034.5 36.178C1035.05 36.526 1044.95 37.103 1056.5 37.459C1068.05 37.816 1081.89 38.557 1087.26 39.105C1092.62 39.654 1102.75 40.5141 1109.76 41.0181C1116.77 41.5221 1126.77 42.37 1132 42.904C1137.22 43.437 1147.68 44.128 1155.24 44.439C1162.8 44.751 1172.11 45.448 1175.93 45.99C1179.74 46.531 1187.96 47.197 1194.18 47.469C1220.81 48.633 1232.66 49.2551 1235 49.6101C1242.37 50.7271 1257.22 51.9239 1270.5 52.4709C1278.75 52.8109 1291.57 53.4679 1299 53.9309C1306.42 54.3939 1312.78 54.6049 1313.13 54.3999C1313.48 54.1949 1317.31 54.4559 1321.63 54.9819C1325.96 55.5069 1335.23 56.1461 1342.24 56.4021C1349.24 56.6581 1355.41 57.1361 1355.94 57.4651C1356.48 57.7941 1360.87 58.293 1365.71 58.574C1377.14 59.238 1378.75 59.6259 1379.47 61.8979C1379.98 63.4999 1380.1 94.016 1379.84 154.5C1379.81 161.65 1380.22 169.32 1380.74 171.545C1381.4 174.322 1381.26 179.652 1380.31 188.545C1379.07 200.126 1379.1 227.702 1380.36 229.787C1380.59 230.179 1380.23 235.9 1379.56 242.5C1378.34 254.505 1378.29 276.528 1379.47 285C1379.81 287.475 1379.6 293.325 1379 298C1377.81 307.249 1377.52 319.013 1377.88 343C1378.01 351.525 1378.08 363.018 1378.03 368.539C1377.99 374.061 1378.46 381.936 1379.08 386.039C1379.71 390.143 1380.36 402.275 1380.52 413C1380.68 423.725 1381.1 438.125 1381.44 445C1382.63 468.815 1383.16 507.968 1382.47 521C1382.31 524.025 1382.09 533.925 1381.99 543C1381.89 552.075 1381.19 566.025 1380.44 574C1379.7 581.975 1379.18 596.6 1379.3 606.5C1379.43 617.548 1379.05 626.815 1378.3 630.493C1377.63 633.79 1376.83 645.04 1376.52 655.493C1376.05 671.369 1375.02 690.019 1374.51 692C1373.68 695.209 1372.94 706.045 1372.44 722.479C1372.11 733.467 1371.68 742.703 1371.5 743.004C1371.31 743.304 1370.68 747.814 1370.09 753.025C1369.5 758.236 1368.81 763.539 1368.55 764.81C1368.14 766.872 1367.41 780.115 1366.5 802C1365.99 814.329 1364.85 827.116 1363.48 836.088C1362.68 841.302 1366.79 840.892 1316 840.816C1303.07 840.796 1278.1 840.785 1260.5 840.79C1209.99 840.804 1195.52 840.791 1163.5 840.698C1147 840.65 1126.52 840.751 1118 840.922C1109.47 841.094 1086.3 841.166 1066.5 841.083C1046.7 841 1028.47 841.319 1026 841.791C1023.52 842.263 1019.92 842.526 1018 842.376C1016.07 842.226 1003.92 841.861 991 841.565C931.429 840.2 913.704 839.474 904 838.003C900.425 837.46 875 836.778 847.5 836.486C820 836.195 793.45 835.898 788.5 835.827C783.55 835.755 772.975 835.832 765 835.997C757.025 836.162 735.875 836.237 718 836.165C700.125 836.092 683.925 836.214 682 836.436C673.136 837.458 660.13 837.974 630.5 838.479C594.022 839.102 575.275 839.776 569.5 840.673C567.3 841.014 546.15 841.41 522.5 841.552C469.858 841.867 402.205 842.917 375.999 843.825C365.274 844.196 347.049 844.212 335.499 843.86C323.949 843.508 304.824 843.134 292.999 843.03C272.771 842.852 228.146 840.296 206.999 838.103C201.774 837.561 193.224 837.094 187.999 837.065C182.774 837.036 175.124 836.56 170.999 836.008C166.874 835.455 160.124 834.561 155.999 834.022C151.874 833.482 146.699 832.794 144.499 832.492C142.299 832.19 135.999 831.505 130.499 830.97C113.956 829.36 112.559 829.188 110.999 828.581C102.338 825.206 59.6985 824.082 48.9995 826.945C38.4425 829.771 36.2904 829.659 35.6064 826.25C34.4154 820.307 33.5144 798.683 33.8054 783C33.9734 773.925 33.6224 761.325 33.0254 755C31.9894 744.027 31.4835 732.999 30.4785 699.5C30.2305 691.25 29.7774 679.325 29.4724 673C29.1664 666.675 28.7325 657 28.5085 651.5C28.2845 646 27.8245 639.025 27.4865 636C27.1475 632.975 26.9815 626.225 27.1155 621C27.5755 603.161 27.3424 541.541 26.7324 519.5C26.1654 499.011 25.6624 452.623 25.6804 422.5C25.6954 398.837 24.4196 338.397 23.5276 320.5C23.2266 314.45 23.3535 304.775 23.8115 299C24.2685 293.225 24.3855 285.575 24.0715 282C23.7565 278.425 23.8434 271.45 24.2634 266.5C25.8264 248.099 25.4016 180.339 23.5486 152.5C23.1826 147 22.7516 123.778 22.5906 100.896C22.4296 78.014 22.0375 58.87 21.7185 58.355C10.3425 39.948 22.2006 28.9779 54.0986 28.3999C72.4696 28.0669 87.9174 27.539 88.4284 27.227C88.9394 26.915 112.114 26.5351 139.928 26.3811C167.742 26.2281 195.224 25.62 200.999 25.03C206.774 24.44 231.974 23.6991 256.999 23.3831C282.024 23.0671 302.71 22.604 302.967 22.354C303.575 21.762 329.919 22.8609 341.499 23.9619Z" fill="#025354"/>
</svg>

<svg xmlns="http://www.w3.org/2000/svg" width="1406" height="866" fill="none" preserveAspectRatio="none" viewBox="0 0 1406 866"><path fill="#025354" fill-rule="evenodd" d="M254.951.376c-.644.637-19.026 1.525-35.452 1.713-7.7.09-16.925.571-20.5 1.073-3.575.501-20.675 1.09-38 1.31-17.325.22-43.2.653-57.5.963-21.655.47-90.798 1.593-96.737 1.571C.844 6.986-1.369 94.095 2.621 170c.729 13.874.67 57.899-.139 101.5-.805 43.512-.806 43.843-.146 70.5.32 12.925.8 50.95 1.064 84.5.265 33.55.737 67.3 1.05 75 1.71 42.227 2.17 95.979.904 105.766-.339 2.621-.116 14.096.495 25.5 1.764 32.918 2.43 47.866 2.706 60.734.142 6.6.525 17.175.849 23.5 1.659 32.361 2.073 45.869 1.84 60-.14 8.525.223 20.9.806 27.5.582 6.6 1.273 14.475 1.535 17.5.86 9.908 2.352 16.233 4.155 17.601.968.735 1.343 1.35.835 1.367-.509.018.133 1.157 1.425 2.532 2.508 2.67 8.493 3.517 9.23 1.307.307-.921 1.995-.908 7.397.057 3.85.688 10.572 1.04 14.936.781 7.09-.419 17.03.01 42.936 1.853 4.4.313 9.35.968 11 1.455 3.831 1.131 23.599 3.767 34 4.534 4.4.324 10.475.997 13.5 1.495 3.025.499 9.1 1.192 13.5 1.54 4.4.348 10.025.831 12.5 1.073 2.475.241 9.225.668 15 .947 5.775.279 17.7 1.144 26.5 1.922 53.357 4.716 114.316 5.918 213 4.2 26.4-.459 68.926-.992 94.501-1.183 25.575-.191 49.875-.765 54-1.275 4.125-.51 18.915-.997 32.868-1.081 13.953-.085 25.691-.353 26.084-.596.392-.242 6.977-.505 14.631-.583 7.654-.079 17.564-.511 22.021-.962 17.357-1.754 224.277-.531 227.176 1.343.704.456 13.079 1.263 27.5 1.795 22.969.847 38.338 1.187 83.85 1.854 5.84.086 13.27-.3 16.5-.857 3.65-.63 17.61-.788 36.87-.417 17.05.328 36.62.557 43.5.51 22.07-.153 81.07-.136 95 .027 7.42.087 31.72.087 54 0 22.27-.087 46.8-.092 54.5-.011 7.7.081 20.5-.114 28.44-.432 10.01-.402 15-.23 16.29.562 1.54.947 2.17.737 3.66-1.225 1.26-1.668 2.38-2.181 3.79-1.735 9.77 3.102 15.19-8.311 17.76-37.398.32-3.575.79-8.525 1.05-11 .26-2.475.72-10.723 1.02-18.33.62-15.538 1.6-25.801 4.39-46.153 1.06-7.69 2.04-21.19 2.19-30 .33-20.454.41-22.195 1.25-27.017 1.58-9.074 1.92-14.801 1.83-30.5-.07-11.752.37-18.658 1.52-24 1.23-5.701 1.59-12.536 1.5-28.5-.07-11.644.45-25.972 1.17-32.161.71-6.138 1.39-18.738 1.5-28 .12-9.261.57-22.689 1.01-29.839.45-7.478.39-17.036-.16-22.5-1.11-11.045-1.11-11.064-.86-34 .11-9.625-.26-21.325-.82-26-.56-4.675-1.02-16.15-1.03-25.5-.01-9.35-.69-22.384-1.51-28.964-.86-6.904-1.28-15.786-1-21 .27-4.97.42-13.536.32-19.036-.31-17.332-.21-32.535.32-47 .28-7.7.25-18.5-.06-24-.32-5.5-.23-13.6.19-18 .42-4.4.68-13.625.59-20.5-.09-6.875-.03-18.575.14-26 .85-36.869-1.04-122.303-3.02-136.083-2.04-14.283-8.04-23.036-17.97-26.218-4.9-1.57-35.65-6.646-44-7.264-4.68-.345-8.74-.778-9.04-.96-.68-.42-12.33-1.307-25.96-1.977-28.46-1.397-47.65-2.693-59-3.983-6.88-.782-20.15-1.679-29.5-1.994-9.35-.314-18.8-.77-21-1.013-2.2-.242-8.5-.693-14-1.003-5.5-.31-13.6-.985-18-1.502s-12.28-1.147-17.5-1.399c-8.89-.429-19.71-1.274-46.63-3.641-6.13-.538-18.05-1.218-26.5-1.509-8.46-.292-22.12-.997-30.37-1.566-8.25-.57-27.15-1.405-42-1.857-14.85-.452-27.675-1.084-28.5-1.405-1.438-.56-6.166-.773-46.5-2.101-9.9-.326-22.725-.844-28.5-1.15-19.84-1.053-35.517-1.725-46-1.972-17.129-.402-55.302-.41-58-.012-4.64.685-38.331 1.829-64 2.174-14.025.188-27.975.583-31 .877-10.974 1.067-217.324.094-219.149-1.034-.888-.549-41.816-2.24-70.852-2.926-15.032-.355-27.778-1.036-46.5-2.483C329.18.81 318.135.366 301.999.769c-24.009.597-40.406.52-43.705-.204-1.59-.35-3.095-.434-3.343-.189Zm86.548 23.586c4.95.47 12.348.922 16.44 1.005 4.092.082 7.809.378 8.261.657.452.279 10.604.694 22.56.92 22.291.424 31.649.974 33.233 1.952.495.306 8.912.553 18.704.548 9.792-.004 23.877.44 31.302.988 12.256.904 53.948 1.535 76.501 1.158 4.95-.083 26.1.042 47 .277 45.863.515 89.355.473 95.5-.094 2.475-.228 15.075-.603 28-.833 26.522-.473 60.244-1.516 67-2.074 10.123-.835 79.456-.393 92 .587 7.425.58 21.825 1.235 32 1.455 16.833.365 47.061 2.085 54.5 3.1 1.65.227 17.85.754 36 1.174 18.15.42 33.45 1.048 34 1.396.55.348 10.45.925 22 1.281 11.55.357 25.39 1.098 30.76 1.646 5.36.549 15.49 1.41 22.5 1.913 7.01.504 17.01 1.352 22.24 1.886 5.22.533 15.68 1.224 23.24 1.535 7.56.312 16.87 1.009 20.69 1.551 3.81.541 12.03 1.207 18.25 1.479 26.63 1.164 38.48 1.786 40.82 2.141 7.37 1.117 22.22 2.314 35.5 2.86 8.25.34 21.07.998 28.5 1.46 7.42.464 13.78.675 14.13.47.35-.205 4.18.056 8.5.582 4.33.525 13.6 1.164 20.61 1.42 7 .256 13.17.734 13.7 1.063.54.33 4.93.828 9.77 1.109 11.43.664 13.04 1.052 13.76 3.324.51 1.602.63 32.118.37 92.602-.03 7.15.38 14.82.9 17.045.66 2.777.52 8.107-.43 17-1.24 11.581-1.21 39.157.05 41.242.23.392-.13 6.113-.8 12.713-1.22 12.005-1.27 34.028-.09 42.5.34 2.475.13 8.325-.47 13-1.19 9.249-1.48 21.013-1.12 45 .13 8.525.2 20.018.15 25.539-.04 5.522.43 13.397 1.05 17.5.63 4.104 1.28 16.236 1.44 26.961.16 10.725.58 25.125.92 32 1.19 23.815 1.72 62.968 1.03 76-.16 3.025-.38 12.925-.48 22-.1 9.075-.8 23.025-1.55 31-.74 7.975-1.26 22.6-1.14 32.5.13 11.048-.25 20.315-1 23.993-.67 3.297-1.47 14.547-1.78 25-.47 15.876-1.5 34.526-2.01 36.507-.83 3.209-1.57 14.045-2.07 30.479-.33 10.988-.76 20.224-.94 20.525-.19.3-.82 4.81-1.41 10.021-.59 5.211-1.28 10.514-1.54 11.785-.41 2.062-1.14 15.305-2.05 37.19-.51 12.329-1.65 25.116-3.02 34.088-.8 5.214 3.31 4.804-47.48 4.728-12.93-.02-37.9-.031-55.5-.026-50.51.014-64.98.001-97-.092-16.5-.048-36.98.053-45.5.224-8.53.172-31.7.244-51.5.161-19.8-.083-38.03.236-40.5.708-2.48.472-6.08.735-8 .585-1.93-.15-14.08-.515-27-.811-59.571-1.365-77.296-2.091-87-3.562-3.575-.543-29-1.225-56.5-1.517-27.5-.291-54.05-.588-59-.659-4.95-.072-15.525.005-23.5.17s-29.125.24-47 .168c-17.875-.073-34.075.049-36 .271-8.864 1.022-21.87 1.538-51.5 2.043-36.478.623-55.225 1.297-61 2.194-2.2.341-23.35.737-47 .879-52.642.315-120.295 1.365-146.501 2.273-10.725.371-28.95.387-40.5.035s-30.675-.726-42.5-.83c-20.228-.178-64.853-2.734-86-4.927-5.225-.542-13.775-1.009-19-1.038-5.225-.029-12.875-.505-17-1.057a5498.625 5498.625 0 0 0-15-1.986c-4.125-.54-9.3-1.228-11.5-1.53-2.2-.302-8.5-.987-14-1.522-16.543-1.61-17.94-1.782-19.5-2.389-8.661-3.375-51.3-4.499-62-1.636-10.556 2.826-12.709 2.714-13.393-.695-1.19-5.943-2.092-27.567-1.8-43.25.167-9.075-.184-21.675-.78-28-1.037-10.973-1.543-22.001-2.548-55.5-.248-8.25-.7-20.175-1.006-26.5-.306-6.325-.74-16-.963-21.5-.224-5.5-.684-12.475-1.023-15.5-.338-3.025-.505-9.775-.37-15 .46-17.839.226-79.459-.384-101.5-.567-20.489-1.07-66.877-1.052-97 .015-23.663-1.26-84.103-2.152-102-.301-6.05-.174-15.725.284-21.5.456-5.775.573-13.425.26-17-.316-3.575-.229-10.55.191-15.5 1.563-18.401 1.139-86.161-.714-114-.366-5.5-.797-28.722-.958-51.604-.161-22.882-.553-42.026-.873-42.541-11.376-18.407.483-29.377 32.38-29.955 18.372-.333 33.82-.861 34.33-1.173.511-.312 23.686-.692 51.5-.846 27.814-.153 55.296-.761 61.071-1.351 5.775-.59 30.975-1.33 56-1.647 25.025-.316 45.711-.779 45.968-1.029.608-.592 26.952.507 38.532 1.608Z" clip-rule="evenodd"/></svg>
